X: 22142
T: Kylebrack Rambler, The
R: reel
M: 4/4
K: Amixolydian
AE E2 AE=cE|AE E2 GEDE|AE E2 A3 B|^cde^c d2 ^cd|
ea a2 agef|gdeg dBGB|AGED EA A2|1 ^cedB A3 B:|2 ^cedB ABcd||
|:e2 de =cA A2|a3 g efgf|g2 dg Bgdg|gabg ageg|
a2 ea be e2|g2 ed Be e2|dB B2 GA (3Bcd|1 gedB ABcd:|2 gedB A2 (3Bcd||
=cA A2 EA A2|ae e2 agef|g2 fa gedB|dgfa gedB|
=cA A2 EA A2|ae e2 agef|g2 fa gedB|1 GBdB A2 (3Bcd:|2 GBdB A3 B||

